Sources/FrostedUI/Resources/Icons.xcassets/messageSlashed32.imageset/message-slashed-32.svg

<svg width="32" height="32" viewBox="0 0 32 32" fill="none" xmlns="http://www.w3.org/2000/svg" data-fui-icon="true">
  <path
    d="M28.2197 2.71979C28.5126 2.42689 28.9874 2.42689 29.2803 2.71979C29.5731 3.01269 29.5731 3.48746 29.2803 3.78033L27.9385 5.12115C28.6387 5.74471 29.084 6.65116 29.084 7.66705V21.6651C29.0839 23.5522 27.5541 25.0821 25.667 25.0821H20.502C20.3664 25.0821 20.2348 25.13 20.1299 25.2169L17.3311 27.5342C16.5566 28.1759 15.4349 28.1735 14.6641 27.5264L11.9111 25.2188C11.8068 25.1316 11.6736 25.0831 11.5361 25.0831H7.97754L3.78027 29.2803C3.4874 29.5732 3.01262 29.5732 2.71973 29.2803C2.42683 28.9874 2.42683 28.5127 2.71973 28.2198L28.2197 2.71979ZM9.47754 23.5831H11.5361C12.0244 23.5831 12.4995 23.7549 12.875 24.0694L15.6279 26.377V26.378C15.8429 26.5585 16.1567 26.5597 16.374 26.3799H16.375L19.1729 24.0616C19.5459 23.7526 20.0157 23.5821 20.502 23.5821H25.667C26.7257 23.5821 27.5839 22.7238 27.584 21.6651V7.66705C27.584 7.06989 27.3081 6.53663 26.875 6.18463L9.47754 23.5831ZM23.2656 4.25006C23.6798 4.25009 24.0156 4.58587 24.0156 5.00006C24.0156 5.41423 23.6798 5.75003 23.2656 5.75006H6.33301C5.27422 5.75006 4.41602 6.60827 4.41602 7.66705V21.6671C4.41603 22.1515 4.59438 22.593 4.89062 22.9307C5.16358 23.2421 5.13264 23.7153 4.82129 23.9883C4.50992 24.2614 4.0368 24.2303 3.76367 23.919C3.23657 23.318 2.91603 22.529 2.91602 21.6671V7.66705C2.91602 5.77984 4.4458 4.25006 6.33301 4.25006H23.2656Z"
    fill="currentColor"
  />
</svg>

<svg xmlns="http://www.w3.org/2000/svg" width="32" height="32" fill="none" data-fui-icon="true" viewBox="0 0 32 32"><path fill="currentColor" d="M28.22 2.72a.75.75 0 1 1 1.06 1.06L27.94 5.121c.7.624 1.145 1.53 1.145 2.546v13.998a3.417 3.417 0 0 1-3.417 3.417h-5.165a.6.6 0 0 0-.372.135l-2.799 2.317a2.08 2.08 0 0 1-2.667-.008l-2.753-2.307a.6.6 0 0 0-.375-.136H7.978L3.78 29.28a.75.75 0 1 1-1.06-1.06zM9.478 23.583h2.058c.488 0 .963.172 1.339.486l2.753 2.308v.001c.215.18.529.182.746.002h.001l2.798-2.318c.373-.31.843-.48 1.329-.48h5.165a1.917 1.917 0 0 0 1.917-1.917V7.667c0-.597-.276-1.13-.709-1.482zM23.266 4.25a.75.75 0 0 1 0 1.5H6.333a1.917 1.917 0 0 0-1.917 1.917v14c0 .484.178.926.475 1.264a.75.75 0 1 1-1.127.988 3.4 3.4 0 0 1-.848-2.252v-14A3.417 3.417 0 0 1 6.333 4.25z"/></svg>
